X:23
T:Sleep Soond Ida Moarnin
M:4/4
L:1/8
Q:120
R: Reel
K:ADor
"Am"A a2 g a2 e-f|"G"gedB "Em"GABG| "Am"A a2 g a2 e-f|1"Em"gedB "Am"A2 "Em"BG:|2"Em"gedB "Am"A3 B|
cAeA cAeA|"G"BcdB G3 B|"Am"cAeA cAeA|"G"BAGB "Am"A2- AB|
cAeA cAeA|"G"BcdB "Am"A2- AB|ABcd "C"efga|"G"gedB "Am"A2 BG|]

